X:62
%%scale 0.6
M:6/8
K:Emin
BEF G2A|Bee Bee|geg afe|dBB B2A|BEF G2A|Bee Bee|geg afd|e3e3:|
geg afa|bge dBA|BGB gbg|afd efa|geg afa|bge dBA|BGB gbg|afd e3:| 
